X:145
T:New Kiss Me Lady. JGi.145
M:2/4
L:1/8
Q:1/4=110
S:Joshua Gibbons MS,1823,Tealby,Lincs.
R:Country Dance
C:Raisin Band
O:Tealby,Lincolnshire
Z:VMP/R.Greig, 2009
K:C
G|c>dc>e|eddf|eg g/f/e/d/|c c’ g e|c>dc>e|eddf|eg g/f/e/d/|ccc2:|
|:zg e g|za f a|zf d f |zg e g|c c’g e |c a f d|ef g/f/e/d/|ccc2:|
|:g>fe>f|ggge|Fffd|Eeec|B>cdB|cccg|agfe|e2d2|
zg e g|za f a|zf d f|zg e g|c c’ g e |c a f d|e>f g/f/e/d/|ccc2:|

